X:122
T:Ride a Mile
M:9/8
L:1/8
B:Thompson's Compleat Collection of 200 Favourite Country Dances, vol. 3 (London, 1773)
Z:Transcribed and edited by Flynn Titford-Mock, 2007
Z:abc's:AK/Fiddler's Companion
K:G
e | dBd gag fed | gdB BdB d2e | dBd gag fed | a2A ABA c2 :|
|: e | dBG G2B dBG | (d/c/B/A/G) GAB d2g | dBG G2B dBG | ecA ABA c2 :|

